X: 53
T: No_42_Klokali_Song_Learned_From_a_Slave_(b).krn
N: Derived from No_42_Klokali_Song_Learned_From_a_Slave_(b).krn
%%abc-version 2.0
%%abcx-abcm2ps-target-version 5.9.1 (29 Sep 2008)
%%abc-creator hum2abc beta
%%abcx-conversion-date 2019/03/15 08:36:13
%%humdrum-veritas 323284903
%%humdrum-veritas-data 1770259201
%%linebreak <none>
%%barnumbers 0
L: 1/8
M: 2/4
K: Bb clef=bass
[K:clef=bass]B,3/A,/ B,A,/A,/ | 
B,G,/G,/ A, z ||  
[M:3/4]!fermata!B,B,/G,/A,3z ]|:  
(3A,G,A, G, z/ G,/ G, z/ G,/ ||  
[M:2/4]A,/G,3/- G, z ||  
[M:3/4]A,/_A,/G,/=A,/ G, z/ F,/ F,3/G,/ ||  
[M:2/4](3G,G,G, G, z | 
A,/G,3/ G,3/G,/ ||  
[M:3/4]G,2G, z G,/F,/G,/ z// G,// | 
G,2G, z (G,/F,/)G,/ z// G,// ||  
[M:2/4]G,2G, z | 
G,3/G,/ A,3/G,/ | 
(3F,D,=E, E, z/ G,/ | 
(3G,G,G, A, z | 
B,3/B,/ B,3/B,/ | 
(3B,G,A, A, z | 
B, (3G,/G,/B,/A,2 :|]  



